_src/static/img/icon/arrow-prev.svg

<svg width="30" height="30" viewBox="0 0 30 30" fill="none" xmlns="http://www.w3.org/2000/svg">
<path d="M15 0C23.2837 0 30 6.71579 30 15C30 23.2842 23.2837 30 15 30C6.71631 30 -1.90735e-06 23.2842 -1.90735e-06 15C-1.90735e-06 6.71579 6.71631 0 15 0ZM16.7332 20.1211C16.8874 20.2747 17.0889 20.3511 17.2905 20.3511C17.4932 20.3511 17.6958 20.2737 17.85 20.1189C18.1574 19.81 18.1568 19.31 17.8479 19.0021L13.8184 14.9895L17.8579 10.8121C18.1611 10.4984 18.1526 9.99895 17.8395 9.69579C17.5258 9.39263 17.0258 9.40053 16.7232 9.71474L11.6016 15.0111L16.7332 20.1211Z" fill="#1B3ACD"/>
</svg>

<svg width="30" height="30" fill="none" xmlns="http://www.w3.org/2000/svg"><path d="M15 0c8.284 0 15 6.716 15 15 0 8.284-6.716 15-15 15-8.284 0-15-6.716-15-15C0 6.716 6.716 0 15 0zm1.733 20.121a.787.787 0 001.117-.002.79.79 0 00-.002-1.117l-4.03-4.012 4.04-4.178a.79.79 0 00-1.135-1.097l-5.121 5.296 5.131 5.11z" fill="#1B3ACD"/></svg>
